src/assets/filled/DocumentFavorite.svg

<svg width="24" height="24" viewBox="0 0 24 24"  xmlns="http://www.w3.org/2000/svg">
<path d="M20.5 10.19H17.61C15.24 10.19 13.31 8.26 13.31 5.89V3C13.31 2.45 12.86 2 12.31 2H8.07C4.99 2 2.5 4 2.5 7.57V16.43C2.5 20 4.99 22 8.07 22H15.93C19.01 22 21.5 20 21.5 16.43V11.19C21.5 10.64 21.05 10.19 20.5 10.19ZM12.48 15.7C11.96 17.37 10.13 18.27 9.5 18.27C8.86 18.27 7.07 17.4 6.52 15.7C6.16 14.59 6.57 13.14 7.84 12.73C8.42 12.54 9.04 12.65 9.49 13C9.94 12.65 10.56 12.54 11.15 12.73C12.43 13.14 12.83 14.59 12.48 15.7Z" />
<path d="M17.4299 8.81048C18.3799 8.82048 19.6999 8.82048 20.8299 8.82048C21.3999 8.82048 21.6999 8.15048 21.2999 7.75048C19.8599 6.30048 17.2799 3.69048 15.7999 2.21048C15.3899 1.80048 14.6799 2.08048 14.6799 2.65048V6.14048C14.6799 7.60048 15.9199 8.81048 17.4299 8.81048Z" />
</svg>

<?xml version="1.0" encoding="UTF-8"?>
<svg width="24" height="24" viewBox="0 0 24 24" xmlns="http://www.w3.org/2000/svg">
 <path d="m20.5 10.19h-2.89c-2.37 0-4.3-1.93-4.3-4.3v-2.89c0-0.55-0.45-1-1-1h-4.24c-3.08 0-5.57 2-5.57 5.57v8.86c0 3.57 2.49 5.57 5.57 5.57h7.86c3.08 0 5.57-2 5.57-5.57v-5.24c0-0.55-0.45-1-1-1zm-8.02 5.51c-0.52 1.67-2.35 2.57-2.98 2.57-0.64 0-2.43-0.87-2.98-2.57-0.36-1.11 0.05-2.56 1.32-2.97 0.58-0.19 1.2-0.08 1.65 0.27 0.45-0.35 1.07-0.46 1.66-0.27 1.28 0.41 1.68 1.86 1.33 2.97z"/>
 <path d="m17.43 8.8105c0.95 0.01 2.27 0.01 3.4 0.01 0.57 0 0.87-0.67 0.47-1.07-1.44-1.45-4.02-4.06-5.5-5.54-0.41-0.41-1.12-0.13-1.12 0.44v3.49c0 1.46 1.24 2.67 2.75 2.67z"/>
</svg>
